img/html.svg

<svg xmlns="http://www.w3.org/2000/svg" viewBox="0 0 128 128"><path fill="#E44D26" d="M19.037 113.876l-10.005-112.215h109.936l-10.016 112.198-45.019 12.48z"/><path fill="#F16529" d="M64 116.8l36.378-10.086 8.559-95.878h-44.937z"/><path fill="#EBEBEB" d="M64 52.455h-18.212l-1.258-14.094h19.47v-13.762h-34.511l.33 3.692 3.382 37.927h30.799zM64 88.198l-.061.017-15.327-4.14-.979-10.975h-13.817l1.928 21.609 28.193 7.826.063-.017z"/><path fill="#fff" d="M63.952 52.455v13.763h16.947l-1.597 17.849-15.35 4.143v14.319l28.215-7.82.207-2.325 3.234-36.233.335-3.696h-3.708zM63.952 24.599v13.762h33.244l.276-3.092.628-6.978.329-3.692z"/></svg>

<svg xmlns="http://www.w3.org/2000/svg" viewBox="0 0 128 128"><path fill="#E44D26" d="M19.04 113.88L9.04 1.66h109.93l-10.02 112.2-45.02 12.48z"/><path fill="#F16529" d="M64 116.8l36.38-10.09 8.56-95.87H64z"/><path fill="#EBEBEB" d="M64 52.45H45.79l-1.26-14.09H64V24.6H29.49l.33 3.7 3.38 37.92H64zm0 35.75l-.06.01-15.33-4.14-.98-10.97H33.82l1.92 21.6 28.2 7.83.06-.01z"/><path fill="#fff" d="M63.95 52.45v13.77H80.9l-1.6 17.85-15.35 4.14v14.32l28.22-7.82.2-2.33 3.24-36.23.33-3.7h-3.7zm0-27.85v13.76H97.2l.27-3.1.63-6.97.33-3.7z"/></svg>
